x = 608, y = 484, rule = B3/S23
262b2o$262b2o7$261b3o$260bo3bo2$259bo5bo$259b2o3b2o14b2o$280b2o2$262bo
$260b2obo$263bo$259bo3bo$259bo2bo$258b5o18bo$258b5o17b3o$257b2o3b2o15b
5o$258b5o15bobobobo$259b3o5bobo8b2o3b2o$260bo7b2o$268bo$281bo$280bobo$
280bob2o$281b3o$281bo2bo$276b2o4b3o$281bo3bo$274bob2o2bo5bo$273bo2bo4b
o3bo$282b3o$274b3o$264bo$254b2o3b2o3b2o$263bobo$255bo3bo$256b3o$256b3o
$266b2o$265bobo$259bo5bobob2o11b2o$258b3o5bobobo4bobo4b2o$257bo3bo6bo
5bo$259bo8b2o4bo$256bo5bo5b3o3bo2bo$256bo5bo5b3o3b3o$257bo3bo6b3o$258b
3o7b2o$268bo$266bobobo$265bobob2o$265bobo$266b2o4$259b2o12bobo$259b2o
15bo$276bo$273bo2bo$274b3o26$273bobo$276bo$276bo$273bo2bo$274b3o26$
273bobo$276bo$276bo$273bo2bo$274b3o26$273bobo$276bo$276bo$273bo2bo$
274b3o26$273bobo$276bo$276bo$273bo2bo$274b3o7$568bo$566bobo$556b2o6b2o
$555bo3bo4b2o19bo$259bo29bo29bo234bo5bo3b2o18b4o$544b2o8bo3bob2o4bobo
14b2ob4o5b2o$544b2o8bo5bo7bo13b3ob2o3bo3bo2bo$555bo3bo23b2ob2o3bo7bo$
556b2o26b5o3bo6bo6b2o$567bo17bo3b3o7bo6b2o$568b2o25bo2bo$550b2o9b2o4b
2o26b2o$549bo2bo7bo2bo$549b3o9b3o19bo$552b9o20b2o$551bo2b5o2bo20b2o$
551b2o2b3o2b2o3$302bo2bo26bo2bo26bo2bo26bo2bo26bo2bo26bo2bo26bo2bo26bo
2bo26bo2bo26bo$301bo29bo29bo29bo29bo29bo29bo29bo29bo14b4o10bo2bo$301bo
3bo25bo3bo25bo3bo25bo3bo25bo3bo25bo3bo25bo3bo25bo3bo25bo3bo10bo3bo9bo$
301b4o26b4o26b4o26b4o26b4o26b4o26b4o26b4o26b4o11bo13bob2obo$557bo2bo
12bobo$583b2o$583bobo$573bo4b2o4b3o7b2o$572bobob2o2bo4b3o6b2o$560b2o9b
o3bob3o4b3o$560b2o9bo3bob2o4bobo$571bo3b2o6b2o$572bobo$573bo2$259bo59b
o$34bo$33bobo$23b2o6b2o3bo$22bobo4b2obo3bo9b2o$21b3o4b3obo3bo9b2o$12b
2o6b3o4bo2b2obobo$12b2o7b3o4b2o4bo$22bobo$23b2o$32bobo12bo2bo$32bob2ob
o13bo11b4o26b4o26b4o26b4o26b4o26b4o26b4o26b4o$37bo9bo3bo10bo3bo25bo3bo
25bo3bo25bo3bo25bo3bo25bo3bo25bo3bo25bo3bo$34bo2bo10b4o14bo29bo29bo29b
o29bo29bo29bo29bo$35bo26bo2bo26bo2bo26bo2bo26bo2bo26bo2bo26bo2bo26bo2b
o26bo2bo3$46b2o2b3o2b2o$24b2o20bo2b5o2bo$25b2o20b9o$24bo19b3o9b3o$44bo
2bo7bo2bo$11b2o26b2o4b2o9b2o$9bo2bo25b2o$2o6bo7b3o3bo17bo$2o6bo6bo3b5o
26b2o$8bo7bo3b2ob2o23bo3bo$9bo2bo3bo3b2ob3o13bo7bo5bo8b2o$11b2o5b4ob2o
14bobo4b2obo3bo8b2o$20b4o18b2o3bo5bo$22bo19b2o4bo3bo206bo29bo29bo$42b
2o6b2o$39bobo$39bo7$301b3o$301bo2bo$301bo$301bo$302bobo26$301b3o$301bo
2bo$301bo$301bo$302bobo26$301b3o$301bo2bo$301bo$301bo$302bobo26$301b3o
$301bo2bo$301bo$301bo$302bobo26$301b3o$301bo2bo$301bo$301bo$302bobo26$
301b3o$301bo2bo$301bo$301bo15b2o$302bobo12b2o4$310b2o$310bobo$307b2obo
bo$307bobobo$309bo$308b2o7b3o$307b3o6bo3bo$301b3o3b3o5bo5bo$300bo2bo3b
3o5bo5bo$303bo4b2o8bo$303bo5bo6bo3bo$294b2o4bobo4bobobo5b3o$294b2o11b
2obobo5bo$310bobo$310b2o$319b3o$319b3o$318bo3bo$312bobo$312b2o3b2o3b2o
$313bo$301b3o$293b3o$292bo3bo4bo2bo$291bo5bo2b2obo$292bo3bo$293b3o4b2o
$293bo2bo$294b3o$294b2obo$295bobo$296bo$309bo$308b2o7bo$293b2o3b2o8bob
o5b3o$293bobobobo15b5o$294b5o15b2o3b2o$295b3o17b5o$296bo18b5o$315bo2bo
$314bo3bo$314bo$314bob2o$315bo2$296b2o$296b2o14b2o3b2o$312bo5bo2$313bo
3bo$314b3o7$314b2o$314b2o!
